X:42
T:Frost is All Over No. 1
Z: id:dc-jig-36
M:6/8
L:1/8
K:D Major
A|def edB|AFD E2D|FAA AFA|Bee edB|!
def edB|AFD E2D|FAA AFA|Bdc d2:|!
e|f3 afd|g3 bag|f3 afd|gfg e2g|!
f3 afd|g3 bag|fga efg|fdc d2:|!

